X:1
T:What Did He Do?
T:William Owen, 1852
T:What Did He Do?
T:Public Domain
T:Public Domain
C:William Owen, 1852
Z:Public Domain
%%score ( 1 2 ) ( 3 4 )
L:1/8
M:2/2
K:Db
V:1 treble 
V:2 treble 
V:3 bass 
V:4 bass 
V:1
 [Fd]4 [FA]2 [FB]2 | [FA]2 [Fd]2 [=Gc]2 [GB]2 | A4 [FA]4 | [DF]2 [FA]2 [GB]2 [Ge]2 | [Fd]4 [Ec]4 | %5
w: 1.~O lis- ten|to our wond- rous|sto- ry,|ed once a- mong|the lost;|
w: 2.~No an- gel|could His place have|tak- en,|est of the high|though he;|
w: 3.~And yet this|won- drous tale pro-|ceed- eth,|ring heart and tongue|a- flame!|
w: 4.~Will you sur-|ren- der to this|Sav- ior?|His scep- ter hum-|bly bow?|
 [Fd]8 | [Fd]4 [FA]2 [FB]2 | [FA]2 [Fd]2 [=Gc]2 [GB]2 | A4 [FA]4 | [DF]2 [FA]2 [GB]2 [Ge]2 | %10
w: Yet|One came down|from heav- en’s glo-|ry, Sav-|us at aw- ful|
w: The|loved One on|the cross for- sak-|en, Was|of the God- head|
w: As|our high priest|in Heav’n He plead-|eth, And|Je- sus is His|
w: You,|too, shall come|to know His fa-|vor, He|save you, save you|
 [Fd]4 [Ec]4 | [Fd]8 ||"^Refrain" z4 [FA]4 | [DF]2 [FA]2 [FA]2 [GB]2 | [FA]2 [EG]2 [DF]4 | z8 | %16
w: cost! Who|saved|us|from e- ter- nal|loss? What did||
w: three! *||||||
w: name! *||||||
w: now. *||||||
 z4 [Fd]4 | [Fd]2 [Ec]2 [DB]4 | z4 [Ge]4 | [Ge]2 [Fd]2 [Ec]4 | z4 [Af]4 | [Af]2 (AG) [Fd]2 [Ge]2 | %22
w: He|do? Where is|He|now? In Heav-|en|in- ter- * ced- ing!|
w: ||||||
w: ||||||
w: ||||||
 ([Fd]4 [Ec]4) | [Fd]8 |] %24
w: ||
w: ||
w: ||
w: ||
V:2
 x8 | x8 | A4 x4 | x8 | x8 | x8 | x8 | x8 | A4 x4 | x8 | x8 | x8 || x8 | x8 | x8 | x8 | x8 | x8 | %18
w: ||Count-||||||ing||||||||||
w: ||High-||||||One||||||||||
w: ||Stir-||||||Christ||||||||||
w: ||To||||||will||||||||||
 x8 | x8 | x8 | x2 e2 x4 | x8 | x8 |] %24
w: ||||||
w: ||||||
w: ||||||
w: ||||||
V:3
 [D,A,]4 [D,D]2 [D,D]2 | [D,D]2 [D,D]2 [E,D]2 [E,D]2 | [A,C]4 [D,D]4 | %3
w: ~ ~ ~|~ ~ ~ ~|~ ~|
 [D,A,]2 [D,D]2 [G,D]2 [G,B,]2 | A,4 [A,,A,]4 | [D,A,]8 | [D,A,]4 [D,D]2 [D,D]2 | %7
w: ~ ~ ~ ~|~ ~|~|~ ~ ~|
 [D,D]2 [D,D]2 [E,D]2 [E,D]2 | [A,C]4 [D,D]4 | [D,A,]2 [D,D]2 [G,D]2 [G,B,]2 | A,4 [A,,A,]4 | %11
w: ~ ~ ~ ~|~ ~|~ ~ ~ ~|~ ~|
 [D,A,]8 || z8 | z8 | z4 [F,A,]4 | [D,F,]2 [F,A,]2 [F,A,]2 [G,B,]2 | [F,A,]2 [E,G,]2 [D,F,]4 | %17
w: but|||God’s|Son up- on the|cross? He died|
 z4 [G,B,]4 | [G,B,]2 [F,A,]2 [E,G,]4 | z4 [A,C]4 | [A,C]2 [G,B,]2 [F,A,]2 [A,D]2 | %21
w: for|you! Be- lieve|it|thou, In heav- en|
 D2 [A,C]2 [B,D]2 [G,B,]2 | (A,4 A,,4) | [D,A,]8 |] %24
w: in- ter- ced- ing!|||
V:4
 x8 | x8 | x8 | x8 | A,4 x4 | x8 | x8 | x8 | x8 | x8 | A,4 x4 | x8 || x8 | x8 | x8 | x8 | x8 | x8 | %18
w: ||||~||||||Who||||||||
 x8 | x8 | x8 | D2 x6 | A,8 | x8 |] %24
w: ||||||

